dist/icons/fb-black-icon.svg

<svg width="28" height="29" viewBox="0 0 28 29" fill="none" xmlns="http://www.w3.org/2000/svg">
<path d="M28 14.7775C28 15.0759 28 15.3652 28 15.6635C27.9819 15.6907 27.9639 15.7178 28 15.7449C28 15.8353 28 15.9257 28 16.0161C27.9639 16.0433 27.9639 16.0433 27.9639 16.0975C27.9278 16.6761 27.8465 17.2367 27.7381 17.8063C27.5214 18.9273 27.1693 20.0032 26.6998 21.0429C26.0858 22.3629 25.2912 23.5654 24.316 24.6322C23.8284 25.1656 23.3138 25.6539 22.754 26.1059C21.9233 26.7749 21.0293 27.3445 20.0632 27.8056C18.8533 28.3842 17.5892 28.782 16.2709 28.99C16.2709 28.9267 16.2709 28.8634 16.2709 28.8001C16.2709 25.6267 16.2709 23.0953 16.2709 19.8134C16.2709 19.741 16.3341 19.6778 16.4063 19.6778C17.4537 19.6778 18.5011 19.6778 19.5485 19.6778C19.6117 19.6778 19.6569 19.6325 19.6659 19.5783C19.7472 19.0178 19.8375 18.4572 19.9187 17.8967C20.0361 17.1372 20.1445 16.3687 20.2619 15.6093C20.2709 15.537 20.2257 15.4827 20.1535 15.4827C18.8984 15.4827 17.6433 15.4827 16.3792 15.4827C16.316 15.4827 16.2619 15.4285 16.2619 15.3652C16.2619 14.5063 16.2619 13.6474 16.2619 12.7885C16.2619 12.5896 16.2709 12.3907 16.307 12.1918C16.3792 11.794 16.5327 11.4233 16.8126 11.125C17.237 10.6729 17.7788 10.5011 18.3657 10.483C19.0158 10.4559 19.6749 10.474 20.3341 10.474C20.3973 10.474 20.4515 10.4198 20.4515 10.3565C20.4515 9.23539 20.4515 8.1143 20.4515 7.00226C20.4515 6.93897 20.4063 6.88473 20.3431 6.87569C19.693 6.77624 19.0339 6.69487 18.3747 6.6587C17.7065 6.6135 17.0384 6.58637 16.3792 6.6587C15.7291 6.73103 15.1061 6.89377 14.5192 7.17404C13.7065 7.5628 13.0564 8.14143 12.5869 8.91895C12.0181 9.86826 11.7833 10.908 11.7652 12.0019C11.7472 13.123 11.7562 14.2441 11.7652 15.3652C11.7652 15.4285 11.7111 15.4827 11.6479 15.4827C10.5011 15.4827 9.3544 15.4827 8.20768 15.4737C8.14447 15.4737 8.09029 15.5279 8.09029 15.5912C8.09029 16.9112 8.09029 18.2402 8.09029 19.5602C8.09029 19.6235 8.14447 19.6778 8.20768 19.6778C9.34537 19.6778 10.4831 19.6778 11.6208 19.6778C11.702 19.6778 11.7652 19.741 11.7652 19.8224C11.7652 23.1133 11.7652 25.6629 11.7652 28.8453C11.7652 28.8905 11.7652 28.9448 11.7652 28.99C11.4041 28.9357 11.0429 28.8544 10.6817 28.773C10.2212 28.6736 9.76072 28.556 9.31828 28.3842C7.10609 27.5525 5.22799 26.2958 3.693 24.6051C3.31377 24.1892 2.96163 23.7462 2.63657 23.2851C1.75169 22.0375 1.08352 20.6813 0.641084 19.2076C0.334086 18.2041 0.14447 17.1734 0.0722348 16.1246C0.0722348 16.0975 0.0902935 16.0433 0.0361174 16.0342C0.0361174 15.9438 0.0361174 15.8534 0.0361174 15.763C0.0451467 15.763 0.0451467 15.763 0.0541761 15.763C0.00902934 15.763 0.00902935 15.754 0 15.7449C0 15.2477 0 14.7504 0 14.2622C0 14.2531 0.00902935 14.2531 0.00902935 14.2441H0C0 14.1627 0 14.0814 0 14C0.0361174 13.9729 0.0361174 13.9729 0.0361174 13.9277C0.0722348 13.4123 0.14447 12.906 0.243792 12.3997C0.460497 11.2877 0.794582 10.2028 1.27314 9.18114C2.09481 7.40007 3.23251 5.85405 4.6772 4.55215C5.15576 4.10914 5.67043 3.71133 6.21219 3.34065C7.24154 2.64449 8.34312 2.10203 9.52596 1.70423C10.6366 1.33355 11.7652 1.09848 12.9391 1.02615C12.9661 1.02615 13.0113 1.04424 13.0023 0.98999C13.6072 0.98999 14.3837 0.98999 14.9887 0.98999C14.9707 1.02615 15.0068 1.02615 15.0248 1.02615C15.1332 1.0352 15.2325 1.04424 15.3409 1.05328C15.8465 1.08944 16.3521 1.17081 16.8488 1.27026C17.8781 1.48725 18.8804 1.80368 19.8465 2.25573C21.8239 3.17791 23.5034 4.48886 24.8758 6.19761C25.7517 7.28253 26.447 8.47594 26.9707 9.77785C27.3409 10.7 27.6117 11.6493 27.7743 12.6258C27.8646 13.1592 27.9368 13.6926 27.9549 14.226C27.9549 14.2531 27.9368 14.2984 27.991 14.3074C27.991 14.434 27.991 14.5696 27.991 14.6962C27.9639 14.7233 27.9729 14.7504 28 14.7775Z" fill="black"/>
</svg>

<svg width="28" height="29" fill="none" xmlns="http://www.w3.org/2000/svg"><path d="M28 14.777v.887c-.018.027-.036.054 0 .08v.272c-.036.027-.036.027-.036.082a13.467 13.467 0 01-.226 1.708 14.553 14.553 0 01-1.038 3.237 14.117 14.117 0 01-3.946 5.063 13.657 13.657 0 01-2.69 1.7 13.7 13.7 0 01-3.793 1.184v-9.177c0-.072.063-.135.135-.135h3.143a.118.118 0 00.117-.1c.081-.56.171-1.12.253-1.681.117-.76.226-1.528.343-2.288.009-.072-.036-.126-.108-.126h-3.775a.12.12 0 01-.117-.118V12.79c0-.2.009-.398.045-.597.072-.398.226-.769.506-1.067.424-.452.966-.624 1.553-.642.65-.027 1.309-.009 1.968-.009a.12.12 0 00.117-.117V7.002a.127.127 0 00-.108-.126c-.65-.1-1.31-.181-1.968-.217-.669-.045-1.337-.073-1.996 0a5.756 5.756 0 00-1.86.515 4.455 4.455 0 00-1.932 1.745c-.569.95-.804 1.989-.822 3.083-.018 1.121-.009 2.242 0 3.363a.12.12 0 01-.117.118c-1.147 0-2.294 0-3.44-.01a.12.12 0 00-.118.118v3.97a.12.12 0 00.118.117h3.413c.081 0 .144.063.144.144v9.168a15.334 15.334 0 01-1.083-.217c-.46-.1-.921-.217-1.364-.389-2.212-.832-4.09-2.088-5.625-3.779-.38-.416-.731-.859-1.056-1.32A13.92 13.92 0 01.64 19.208a13.748 13.748 0 01-.569-3.083c0-.027.018-.082-.036-.09v-.272h.018c-.045 0-.045-.009-.054-.018v-1.483c0-.009.009-.009.009-.018H0V14c.036-.027.036-.027.036-.072.036-.516.108-1.022.208-1.528.216-1.112.55-2.197 1.03-3.219a14.152 14.152 0 013.403-4.629c.479-.443.993-.84 1.535-1.211a13.634 13.634 0 013.314-1.637 13.31 13.31 0 013.413-.678c.027 0 .072.018.063-.036h1.987c-.018.036.018.036.036.036l.316.027a12.17 12.17 0 011.508.217c1.03.217 2.031.534 2.997.986a13.903 13.903 0 015.03 3.942 13.946 13.946 0 012.095 3.58c.37.922.64 1.871.803 2.848.09.533.163 1.067.18 1.6 0 .027-.017.072.037.081v.39c-.027.026-.018.053.009.08z" fill="#000"/></svg>
